!!!COM: Montella, Giovan Domenico
!!!CDT:
!!!PTL: Primo libro de madrigali a quattro voci
!!!PPP: Naples
!!!PPR: Sottile
!!!PDT: 1604
!!!PUB-format:
!!!RISM: M 3422
!!!rime: 47
!!!OTL:	Non è questa la mano
!!!AGN: Madrigal
!!!SCT: Trm0047s
!!!SCA: Trm0047s
!!!original-voices: 4
!!!extant-voices: 4
!!!complete: Y
!!!final: F
**kern	**text	**kern	**text	**kern	**text	**kern	**text
*part4	*part4	*part3	*part3	*part2	*part2	*part1	*part1
*staff4	*staff4	*staff3	*staff3	*staff2	*staff2	*staff1	*staff1
*I"Basso	*	*I"Tenore	*	*I"Alto	*	*I"Canto	*
*I'B	*	*I'T	*	*I'A	*	*I'C	*
*oclefF3	*	*oclefC3	*	*oclefC2	*	*oclefG2	*
*clefF4	*	*clefGv2	*	*clefG2	*	*clefG2	*
*k[b-]	*	*k[b-]	*	*k[b-]	*	*k[b-]	*
*omet(C)	*	*omet(C)	*	*omet(C)	*	*omet(C)	*
*M4/2	*	*M4/2	*	*M4/2	*	*M4/2	*
=1	=1	=1	=1	=1	=1	=1	=1
!!LO:TX:a:t=Prima parte.
1r	.	1c	Non	0r	.	0r	.
1F	Non	2A	è	.	.	.	.
.	.	[2c	que-	.	.	.	.
=2	=2	=2	=2	=2	=2	=2	=2
2E	è	4c]	.	0r	.	0r	.
.	.	4c	-sta	.	.	.	.
2.F	que-	2A	la	.	.	.	.
.	.	1d	ma-	.	.	.	.
4F	-sta	.	.	.	.	.	.
2D	la	.	.	.	.	.	.
=3	=3	=3	=3	=3	=3	=3	=3
1G	ma-	4B-y	-no	1r	.	4r	.
.	.	4G	Che	.	.	4b-y	Che
.	.	4B-y	tan-	.	.	4dd	tan-
.	.	4c	-t'e	.	.	4ee	-t'e
4F	-no	2d	sì	2r	.	4ff	sì,
4D	Che	.	.	.	.	4f	Che
4F	tan-	[2A	mor-	2f	Non	4a	tan-
4G	-t'e	.	.	.	.	4b-y	-t'e
=4	=4	=4	=4	=4	=4	=4	=4
2A	sì	2A]	.	2e	è	2cc	sì
2F	mor-	1d	-ta-	2.f	que-	2a	mor-
1B-y	-ta-	.	.	.	.	1dd	-ta-
.	.	.	.	4f	-sta	.	.
.	.	2B-y	-li,	2d	la	.	.
=5	=5	=5	=5	=5	=5	=5	=5
2A	-li,	4r	.	2a	ma-	2cc	-li,
.	.	4c	Che	.	.	.	.
2r	.	4d	tan-	2f	-no	2r	.
.	.	4e	-t'e	.	.	.	.
1D	Non	4f	sì,	4r	.	2r	.
.	.	4F	<Che	4d	Che	.	.
.	.	4A	tan-	4f	tan-	2ff	Non
.	.	4BnX	-t'e	4g	-t'e	.	.
=6	=6	=6	=6	=6	=6	=6	=6
2C	è	2c	sì>	2a	sì	2ee	è
2.D	que-	2A	mor-	2f	mor-	2.ff	que-
.	.	1d	-ta-	1b-y	-ta-	.	.
4D	-sta	.	.	.	.	4ff	-sta
2BB-y	la	.	.	.	.	2dd	la
=7	=7	=7	=7	=7	=7	=7	=7
1E-X	ma-	4B-y	-li,	1g	-li,	1gg	ma-
.	.	4G	Che	.	.	.	.
.	.	4B-y	tan-	.	.	.	.
.	.	4c	-t'e	.	.	.	.
4D	-no	2d	sì	4r	.	1ff	-no,
4BB-y	Che	.	.	4d	<Che	.	.
4D	tan-	[2A	mor-	4f	tan-	.	.
4EnXi	-t'e	.	.	4g	-t'e	.	.
=8	=8	=8	=8	=8	=8	=8	=8
2F	sì	2A]	.	2a	sì	4r	.
.	.	.	.	.	.	4f	Che
2D	mor-	1d	-ta-	1f	mor-	4a	tan-
.	.	.	.	.	.	4bnX	-t'e
1A	-ta-	.	.	.	.	2cc	sì
.	.	2c	-li	[2cc	-ta-	2a	mor-
=9	=9	=9	=9	=9	=9	=9	=9
1G	-li	2r	.	2cc]	.	1dd	-ta-
.	.	4g	Av-	2bnX	-li>	.	.
.	.	4g	-ven-	.	.	.	.
4c	Av-	2g	-tò	1r	.	2cc	-li
4c	-ven-	.	.	.	.	.	.
2c	-tò	4f	nel	.	.	2r	.
.	.	4e	mio	.	.	.	.
=10	=10	=10	=10	=10	=10	=10	=10
4B-y	nel	2d	cor	4b-i	Av-	4dd	Av-
4A	mio	.	.	4b-y	-ven-	4dd	-ven-
2G	cor	4r	.	1b-y	-tò	1dd	-tò
.	.	4d	fiam-	.	.	.	.
4r	.	4e	-mel-	.	.	.	.
4A	fiam-	4f	-l'e	.	.	.	.
4B-y	-mel-	2g	stra-	4a	nel	4cc	nel
4c	-l'e	.	.	4g	mio	4b-y	mio
=11	=11	=11	=11	=11	=11	=11	=11
2d	stra-	2d	-li,	2f#X	cor,	2a	cor,
2G	-li,	4d	Av-	4b-y	<Av-	2r	.
.	.	4d	-ven-	4b-y	-ven-	.	.
2r	.	2d	-tò	2b-y	-tò	1r	.
4F	Av-	4c	nel	4a	nel	.	.
4F	-ven-	4B-y	mio	4g	mio	.	.
=12	=12	=12	=12	=12	=12	=12	=12
2F	-tò	2A	cor,	2f	cor,>	2r	.
4E-X	nel	4c	Av-	2r	.	4ee-X	Av-
4D	mio	4c	-ven-	.	.	4ee-i	-ven-
2C	cor,	2c	-tò	4g	Av-	2ee-i	-tò
.	.	.	.	4g	-ven-	.	.
4E-X	<Av-	4B-y	nel	[2g	-tò	4dd	nel
4E-i	-ven-	4A	mio	.	.	4cc	mio
=13	=13	=13	=13	=13	=13	=13	=13
2E-i	-tò	2G	cor,	2g]	.	4b-y	cor
.	.	.	.	.	.	4cc	fiam-
4D	nel	4B-y	<Av-	4f	nel	4dd	-mel-
4C	mio	4B-y	-ven-	4e	mio	4ee	-l'e
4BB-y	cor>	2B-y	-tò	4d	cor	2.ff	stra-
4C	fiam-	.	.	4e	fiam-	.	.
4D	-mel-	4A	nel	4f	-mel-	.	.
4E-i	-l'e	4G	mio	4g	-l'e	[4cc	-li,
=14	=14	=14	=14	=14	=14	=14	=14
0F	stra-	4F	cor>	4a	stra-	4cc]	.
.	.	4G	fiam-	4g	.	4b-y	e
.	.	4A	-mel-	4f	.	1b-y	stra-
.	.	4B-y	-l'e	4e	.	.	.
.	.	1c	stra-	1f	.	.	.
.	.	.	.	.	.	2a	.
=15	=15	=15	=15	=15	=15	=15	=15
0BB-y	-li?	0d	-li?	0f	-li?	0b-y	-li?
=||16	=||16	=||16	=||16	=||16	=||16	=||16	=||16
!!LO:TX:a:t=Seconda parte.
2D	Ec-	2d	Ec-	2f#X	Ec-	2a	Ec-
2D	-co	2d	-co	4f#i	-co	2a	-co
.	.	.	.	4a	che	.	.
2r	.	2r	.	4b-y	pur	2r	.
.	.	.	.	4b-y	si	.	.
4r	.	4r	.	2a	tro-	4r	.
4A	che	4c#X	che	.	.	4ee	che
=17	=17	=17	=17	=17	=17	=17	=17
4F	pur	4d	pur	1.a	-va,	4ff	pur
4G	si	4d	si	.	.	4ff	si
2A	tro-	2c#X	tro-	.	.	2ee	tro-
2A	-va,	2c#i	-va,	.	.	2ee	-va,
4r	.	4r	.	4r	.	4r	.
4E	<che	4cnXi	<che	4g	che	4ee	<che
=18	=18	=18	=18	=18	=18	=18	=18
4F	pur	4.A	pur	4a	pur	4cc	pur
4F	si	.	.	4a	si	4dd	si
.	.	8B-y	si	.	.	.	.
2E	tro-	2c	tro-	2g	tro-	2ee	tro-
2E	-va>	2BnX	-va>	2g#X	-va	2ee	-va>
4r	.	4r	.	4r	.	4r	.
4A	Fra	4c	Fra	4e	Fra	4a	Fra
=19	=19	=19	=19	=19	=19	=19	=19
4A	le	4c	le	4e	le	4a	le
4G	mie	4d	mie	4g	mie	4bnX	mie
4F	man	8A	man	4a	man	4cc	man
.	.	8A	ri-	.	.	.	.
4F	ri-	2c	-stret-	4a	ri-	4cc	ri-
2D	-stret-	.	.	2f	-stret-	2dd	-stret-
.	.	4BnX	.	.	.	.	.
2C	-ta	2c	-ta	2e	-ta	4g	-ta
.	.	.	.	.	.	4g	Né
=20	=20	=20	=20	=20	=20	=20	=20
0r	.	4r	.	4r	.	4g	for-
.	.	4c	Né	4e	Né	4g	-za od
.	.	4c	for-	4e	for-	4.a	ar-
.	.	4c	-za od	4e	-za od	.	.
.	.	.	.	.	.	8g	-te
.	.	4.d	ar-	4.f	ar-	8f	per
.	.	.	.	.	.	8g	fug-
.	.	.	.	.	.	8a	-gir
.	.	8d	-te	8f	-te	8bnX	li
.	.	8c	per	8e	per	2cc	gio-
.	.	8d	fug-	8f	fug-	.	.
.	.	8e	-gir	8g	-gir	.	.
.	.	8f	li	8a	li	.	.
=21	=21	=21	=21	=21	=21	=21	=21
2G	Né	4g	gio-	4d	gio-	4bnX	-va,
.	.	4d	-va,	4g	-va,	4bni	Né
4G	for-	2r	.	2e	Né	4bni	for-
4G	-za od	.	.	.	.	4bni	-za od
4.A	ar-	2r	.	4e	for-	4.cc	ar-
.	.	.	.	4e	-za od	.	.
8G	-te	.	.	.	.	8b-i	-te
8F	per	4r	.	4.f	ar-	8a	per
8G	fug-	.	.	.	.	8b-y	fug-
8A	-gir	[4c	per	.	.	8cc	-gir
8B-y	li	.	.	8f	-te	8dd	li
=22	=22	=22	=22	=22	=22	=22	=22
2c	gio-	8c]	.	8e	per	2ee	gio-
.	.	8d	fug-	8f	fug-	.	.
.	.	8e	-gir	8g	-gir	.	.
.	.	8f	li	8a	li	.	.
2G	-va,	2g	gio-	2bnX	gio-	2dd	-va,
2r	.	2c	-va,	2g	-va,	4ee	Né
.	.	.	.	.	.	4ee	tien
4F	Né	2r	.	4a	Né	4ff	fa-
4F	tien	.	.	4a	tien	8ff	-ce o
.	.	.	.	.	.	8ee	sa-
=23	=23	=23	=23	=23	=23	=23	=23
4G	fa-	4B-y	Né	4b-y	fa-	4dd	-et-
8G	-ce o	4B-y	tien	8b-y	-ce o	4dd	-ta
8F	sa-	.	.	8a	sa-	.	.
4E	-et-	4c	fa-	4g	-et-	4ee	Che
4E	-ta	8c	-ce o	4g	-ta	4ee	da
.	.	8B-y	sa-	.	.	.	.
4F	Che	4A	-et-	4a	Che	4cc	me
4F	da	4A	-ta	4a	da	8cc	la
.	.	.	.	.	.	8cc	di-
4D	me	4B-y	Che	4f	me	[2dd	-fen-
8D	la	4B-y	da	8f	la	.	.
8D	di-	.	.	8f	di-	.	.
=24	=24	=24	=24	=24	=24	=24	=24
2E-X	-fen-	4G	me	1g	-fen-	4dd]	.
.	.	8G	la	.	.	4cc	.
.	.	8G	di-	.	.	.	.
1D	-da.	2B-y	-fen-	.	.	1dd	-da.
.	.	4A	-da.	2f#X	-da.	.	.
.	.	2d	Giu-	.	.	.	.
4G	Giu-	.	.	4g	Giu-	4bnX	Giu-
4E-i	-sto è	4c	-sto è	4g	-sto è	4cc	-sto è
=25	=25	=25	=25	=25	=25	=25	=25
2G	ben,	2BnX	ben,	2d	ben,	2dd	ben,
4A	<Giu-	4enX	<Giu-	4a	<Giu-	4cc#X	<Giu-
4F#X	-sto è	4d	-sto è	4a	-sto è	4dd	-sto è
2A	ben>	2c#X	ben>	2a	ben>	2ee	ben>
4D	ch'io	4d	ch'io	4a	ch'io	4ff	ch'io
4FnXi	ne	4A	ne	4a	ne	4ccnXi	ne
=26	=26	=26	=26	=26	=26	=26	=26
2C	pren-	2e	pren-	2g	pren-	2cc	pren-
4C	-da	4e	-da	4g	-da	4cc	-da
4AA	An-	4e	An-	4a	An-	4cc#X	An-
4D	-cor	4f	-cor	4a	-cor	4dd	-cor
4.G	qual-	4.d	qual-	4.g	qual-	4.bnX	qual-
8G	-che	8d	-che	8g	-che	8bni	-che
4E-X	ven-	4c	ven-	4g	ven-	4ccnXi	ven-
=27	=27	=27	=27	=27	=27	=27	=27
2D	-det-	2d	-det-	2f#X	-det-	2a	-det-
2G	-ta,	2d	-ta,	2g	-ta,	2bnX	-ta,
1r	.	4g	E	4b-y	E	2r	.
.	.	4g	se	4b-y	se	.	.
.	.	4f	pia-	4a	pia-	4dd	E
.	.	8e	-ghe	8g	-ghe	4dd	se
.	.	8d	mi	8fnXi	mi	.	.
=28	=28	=28	=28	=28	=28	=28	=28
2r	.	2e-X	diè	4g	diè	4b-y	pia-
.	.	.	.	4.g	ba-	8a	-ghe
.	.	.	.	.	.	8g	mi
4d	E	4r	.	.	.	2a	diè
.	.	.	.	8g	-ci	.	.
4d	se	4.a	ba-	4f	li	.	.
4B-y	pia-	.	.	2d	ren-	4r	.
.	.	8a	-ci	.	.	.	.
8A	-ghe	4g	li	.	.	4.dd	ba-
8G	mi	.	.	.	.	.	.
2A	diè	4enXi	ren-	2a	-da,	.	.
.	.	.	.	.	.	8dd	-ci
.	.	4e	-da,	.	.	4cc	li
=29	=29	=29	=29	=29	=29	=29	=29
4r	.	4f	E	1r	.	4a	ren-
4.B-y	ba-	4f	se	.	.	4dd	-da,
.	.	4d	pia-	.	.	4r	.
8B-y	-ci	.	.	.	.	.	.
4G	li	8c	-ghe	.	.	4.b-y	<ba-
.	.	8B-y	mi	.	.	.	.
2F	ren-	4.c	diè,	2r	.	.	.
.	.	.	.	.	.	8b-y	-ci
.	.	.	.	.	.	4a	li
.	.	16B-yL	.	.	.	.	.
.	.	16cJ	.	.	.	.	.
2B-y	-da,	2d	.	4b-y	E	2f	ren-
.	.	.	.	4b-y	se	.	.
=30	=30	=30	=30	=30	=30	=30	=30
2r	.	1r	.	4a	pia-	2cc	-da,>
.	.	.	.	8g	-ghe	.	.
.	.	.	.	8f	mi	.	.
4c	E	.	.	2g	diè,	4ee-X	E
4c	se	.	.	.	.	4ee-i	se
4A	pia-	4f	E	4a	<E	4cc	pia-
8G	-ghe	4f	se	4a	se	8b-y	-ghe
8F	mi	.	.	.	.	8a	mi
4G	diè	4e-X	pia-	4g	pia-	4b-y	diè
[4C	ba-	8d	-ghe	8f	-ghe	4r	.
.	.	8c	mi	8e	mi	.	.
=31	=31	=31	=31	=31	=31	=31	=31
8C]	.	4d	diè	4f	diè>	4r	.
8C	-ci	.	.	.	.	.	.
4BB-y	li	4.d	ba-	4.f	ba-	4.b-y	ba-
1GG	ren-	.	.	.	.	.	.
.	.	8d	-ci	8f	-ci	8b-y	-ci
.	.	4c	li	4e-X	li	4g	li
.	.	2BnX	ren-	2d	ren-	2g	ren-
2C	-da,	2c	-da,	2enXi	-da,	2g	-da,
=32	=32	=32	=32	=32	=32	=32	=32
2r	.	1r	.	1r	.	2r	.
4c	<E	.	.	.	.	4ee-X	E
4c	se	.	.	.	.	4ee-i	se
4B-y	pia-	4g	<E	4b-y	E	4dd	pia-
8A	-ghe	4g	se	4b-y	se	8cc	-ghe
8G	mi	.	.	.	.	8b-y	mi
4A	diè	4f	pia-	4a	pia-	4cc	diè
[4D	ba-	8e	-ghe	8g	-ghe	4r	.
.	.	8d	mi	8f	mi	.	.
=33	=33	=33	=33	=33	=33	=33	=33
8D]	.	4e	diè	4g	diè	4r	.
8D	-ci	.	.	.	.	.	.
4C	li	4.e	ba-	4.g	ba-	4.cc	ba-
1AA	ren-	.	.	.	.	.	.
.	.	8e	-ci	8g	-ci	8cc	-ci
.	.	4d	li	4f	li	4a	li
.	.	2c#X	ren-	2e	ren-	2a	ren-
4D	-da,>	2d	-da,>	4f#X	-da,	2a	-da,
[4F	ba-	.	.	[4a	ba-	.	.
=34	=34	=34	=34	=34	=34	=34	=34
4F]	.	2r	.	4a]	.	2r	.
4F	-ci	.	.	4a	-ci,	.	.
2E	li	2.c	ba-	2.g	ba-	2.ee	ba-
[1C	ren-	.	.	.	.	.	.
.	.	4c	-ci	4g	-ci	4ee	-ci
.	.	2A	li	[2f	li	2cc	li
=35	=35	=35	=35	=35	=35	=35	=35
1C]	.	1G	ren-	2f]	.	1cc	ren-
.	.	.	.	2e	ren-	.	.
1Fl	-da.	1Al	-da.	1fl	-da.	1ccl	-da.
==	==	==	==	==	==	==	==
*-	*-	*-	*-	*-	*-	*-	*-
!!!system-decoration: [*]
!!!RDF**kern: i = editorial accidental
!!!RDF**kern: l = terminal long
!!!ENC: Emiliano Ricciardi
!!!END: 2017/11
!!!EED: Deutsch, Catherine
!!!EEV: 2018/07/09
!!!YEC: Copyright 2018 Emiliano Ricciardi, All Rights Reserved
!!!ONB: Translated from MusicXML on 2018/07/09 and edited by Craig Stuart Sapp
!!@@BEGIN:	VERSEDATA
!!@SOLERTI:	47
!!@CATALOGNUM:	Trm0047
!!@LAST_MODIFIED: 2020/07/12
!!@TITLE:		Non è questa la mano
!!@GENRE:		madrigale/ballata
!!@MANUSRC:	Amz, Brn, C, E<sub>1</sub>, F<sub>2</sub>, I<sub>3</sub>, M<sub>7</sub>, P<sub>4</sub>, Tr<sub>2</sub>, V<sub>8</sub>, V<sub>13/E1</sub>
!!@PRINTSRC:	8, 9, 11, 12, 13, 15, 20, 24, 29, 33, 67, 145
!!@@BEGIN:	VERSES
!!@ABOUTIT:	Ballando con la sua donna desidera di fare amorosa vendetta de la sua mano ch’egli teneva stretta.
!!@ABOUTEN:	Dancing with his lady, he desires to take amorous revenge on the hand he held tight.
!!@EDITOR:	Solerti, Angelo
!!@EDITION_TITLE: Le Rime di Torquato Tasso
!!@EDITION_LOC:	Bologna
!!@EDITION_PUB:	Romagnoli-Dall’Acqua
!!@EDITION_DATE:  1898-1902
!!@EDITION_VOL:	2
!!@EDITION_PAGE:  71
!!@TRANSLATOR:	Emiliano Ricciardi and Amyrose McCue Gill
!!@VERSE:
!!	Non è questa la mano
!!	Che tante e sì mortali
!!	Avventò nel mio cor fiammelle e strali?
!!	Ecco che pur si trova
!!	Fra le mie man ristretta
!!	Né forza od arte per fuggir le giova,
!!	Né tien face o saetta
!!	Che da me la difenda.
!!	Giusto è ben ch'io ne prenda,
!!	Amor, qualche vendetta,
!!	E se piaghe mi diè baci le renda.
!!@TVERSE:
!!	Is this not the hand
!!	That so many and truly fatal
!!	Flames and arrows hurled at my heart?
!!	Yet here it is, to be found
!!	Held fast between my hands,
!!	Neither strength nor craft can help it escape,
!!	Nor does it hold a torch or a spear
!!	To defend her against me.
!!	It is just that I take,
!!	Love, some kind of revenge,
!!	And if she gave me wounds, may I give her kisses.
!!@@END:		VERSES
!!@OTHER_CRIT_ED:   Torquato Tasso, <i>Rime d’amore (secondo il codice
!!		Chigiano L VIII 302)</i>, eds. Franco Gavazzeni and
!!		Vercingetorige Martignone, vol. 4 of <i>Edizione
!!		Nazionale delle opere di Torquato Tasso</i>
!!		(Alessandria: Edizioni Dell’Orso, 2004), 34.
!!@ATTRIBUTION_ABOUT:	Secure
!!		<br>
!!		Among other authoritative sources (see Literary
!!		Sources), this poem appears in the autograph Chigiano
!!		L.VIII.302 (Biblioteca Vaticana, Rome), compiled
!!		around 1584&ndash;85.
!!@DATING:	Before 1579
!!		<br>
!!		Although Solerti dates this poem to the early 1560s,
!!		there is no hard evidence to support this dating.
!!		The earliest written testimony of “Non è questa la
!!		mano” is Benedetto Pallavicino’s musical setting,
!!		published in 1579 (Trm0047a).
!!@DEDICATEE:	Bendidio, Lucrezia
!!@DEDICATEE_INFO:
!!		In the autograph Chigiano L.VIII.302 (Biblioteca
!!		Vaticana, Rome), this poem appears among those
!!		addressed to Tasso’s <i>primo amore</i> (first love),
!!		identified as the Ferrarese singer and noblewoman
!!		<a target="_new" href="http://www.treccani.it/enciclopedia/lucrezia-bendidio_%28Dizionario-Biografico%29">Lucrezia Bendidio</a>
!!		(1547&ndash;after 1584). The poem itself, however, does not mention Lucrezia.
!!		As [Anthony Newcomb] {footnote: Anthony Newcomb, “The Ballata and the ‘Free’ Madrigal in
!!		the Second Half of the Sixteenth Century,” Journal
!!		of the American Musicological Society, vol. 63, no.
!!		3 (Fall 2010): 433&ndash;34.} has pointed out, this poem belongs to the
!!		hybrid genre of the ballata-madrigale.  More
!!		specifically, the opening tercet recalls the
!!		<i>ripresa</i> of a ballata, the central section
!!		the <i>piedi</i> (two pairs of <i>settenarii</i>
!!		separated by an <i>endecasillabo</i>), and the final
!!		tercet the <i>volta</i>. The poem is extremely rich
!!		of references to <i>topoi</i> that resonated with
!!		the culture of the time, such as courtly dance and
!!		the female hand–the latter is especially common in
!!		late sixteenth-century lyric poetry (see <i>Rime</i>
!!		315, 571, and 862). Counting 23 settings (see Musical
!!		Settings), “Non è questa la mano” is second only
!!		to “Ardi e gela a tua voglia” (<i>Rime</i> 418),
!!		whose musical fortune, however, is tied to that of
!!		Guarini’s <i>proposta</i> “Ardo sì, ma non t’amo.”
!!@@END:		VERSEDATA
!!@@BEGIN:	SETTING
!!@CATALOGNUM:	Trm0047s
!!@RIMETITLE:	Non è questa la mano
!!@SOLERTI:	47
!!@COMPOSER:	Montella, Giovan Domenico
!!@PRINCEPSTITLE:	Primo libro de madrigali a quattro voci
!!@PRINCEPSLOC:	Napoli
!!@NORMLOC:	Naples
!!@NORMPUB:	Sottile
!!@NORMPUBSHORT:	Sottile
!!@PRINCEPSPUB:	Sottile
!!@PRINCEPSYEAR:	1604
!!@PRINCEPSRISM:	M 3422
!!@REPRINTS:	
!!@OVOICES:	4
!!@EXTANTVOICES:	4
!!@PARTBOOKS:	
!!@EXTPARTBOOKS:	
!!@OCLEFS:	G2,C2,C3,F3
!!@OMENSURATION:	C
!!@OKEYSIG:	b-
!!@FINAL:	F
!!@TIMPEDITOR:	Deutsch, Catherine
!!@NOTE:		
!!@@END:		SETTING
